packages/core/src/svgs/cbeth.svg

<svg width="24" height="24" viewBox="0 0 24 24" fill="none" xmlns="http://www.w3.org/2000/svg">
<g clip-path="url(#clip0_31_8040)">
<path d="M0 0H24V24H0V0Z" fill="#F0F3FA"/>
<path d="M12 18.2145C13.6481 18.2145 15.2287 17.5598 16.3941 16.3944C17.5595 15.229 18.2143 13.6483 18.2143 12.0002C18.2143 10.3521 17.5595 8.77145 16.3941 7.60605C15.2287 6.44064 13.6481 5.78592 12 5.78592C10.3518 5.78592 8.77121 6.44064 7.6058 7.60605C6.4404 8.77145 5.78568 10.3521 5.78568 12.0002C5.78568 13.6483 6.4404 15.229 7.6058 16.3944C8.77121 17.5598 10.3518 18.2145 12 18.2145ZM18.8571 12.0002C18.8571 13.8188 18.1347 15.563 16.8487 16.8489C15.5627 18.1349 13.8186 18.8574 12 18.8574C10.1813 18.8574 8.4372 18.1349 7.15123 16.8489C5.86527 15.563 5.14282 13.8188 5.14282 12.0002C5.14282 10.1816 5.86527 8.43744 7.15123 7.15148C8.4372 5.86551 10.1813 5.14307 12 5.14307C13.8186 5.14307 15.5627 5.86551 16.8487 7.15148C18.1347 8.43744 18.8571 10.1816 18.8571 12.0002Z" fill="#0052FF"/>
<path d="M12 6.85693V10.4998L15 11.8755L12 6.85693Z" fill="#0052FF" fill-opacity="0.6"/>
<path d="M12 6.85693L9 11.8755L12 10.5041V6.85693Z" fill="#0052FF"/>
<path d="M12 14.2373V16.7145L15 12.4502L12 14.2373Z" fill="#0052FF" fill-opacity="0.6"/>
<path d="M12 16.7145V14.2373L9 12.4502L12 16.7145Z" fill="#0052FF"/>
<path d="M12 13.6673L15 11.8758L12 10.5044V13.6673Z" fill="#0052FF" fill-opacity="0.2"/>
<path d="M9 11.8757L12 13.6671V10.5L9 11.8757Z" fill="#0052FF" fill-opacity="0.6"/>
</g>
<defs>
<clipPath id="clip0_31_8040">
<rect width="24" height="24" fill="white"/>
</clipPath>
</defs>
</svg>

<svg xmlns="http://www.w3.org/2000/svg" width="24" height="24" fill="none" viewBox="0 0 24 24"><g clip-path="url(#a)"><path fill="#F0F3FA" d="M0 0h24v24H0z"/><path fill="#0052FF" d="M12 18.215a6.214 6.214 0 1 0 0-12.429 6.214 6.214 0 0 0 0 12.429M18.857 12a6.857 6.857 0 1 1-13.714 0 6.857 6.857 0 0 1 13.714 0"/><path fill="#0052FF" fill-opacity=".6" d="M12 6.857V10.5l3 1.376z"/><path fill="#0052FF" d="m12 6.857-3 5.019 3-1.372z"/><path fill="#0052FF" fill-opacity=".6" d="M12 14.237v2.478l3-4.265z"/><path fill="#0052FF" d="M12 16.715v-2.478L9 12.45z"/><path fill="#0052FF" fill-opacity=".2" d="m12 13.667 3-1.791-3-1.372z"/><path fill="#0052FF" fill-opacity=".6" d="m9 11.876 3 1.791V10.5z"/></g><defs><clipPath id="a"><path fill="#fff" d="M0 0h24v24H0z"/></clipPath></defs></svg>
